public/img/Hero/Infinix_QA.svg

<svg width="476" height="80" viewBox="0 0 476 80" fill="none" xmlns="http://www.w3.org/2000/svg">
<rect width="475.094" height="79" transform="translate(0.09375 0.674316)" />
<path d="M64.4689 16.12C57.5701 16.12 51.348 19.0986 46.9938 23.8481L54.7873 35.7217C56.4651 32.0112 60.173 29.4266 64.4689 29.4266C70.3387 29.4266 75.1136 34.2477 75.1136 40.1743C75.1136 46.1008 70.3387 50.9219 64.4689 50.9219C60.4999 50.9219 57.2178 48.606 55.2054 45.4585C44.9536 29.4266 46.4996 31.6811 43.182 26.4505C42.376 25.1787 41.4079 23.8609 41.1646 23.6024C36.823 18.9963 30.6973 16.12 23.9176 16.12C10.7815 16.12 0.09375 26.9111 0.09375 40.1743C0.09375 53.4374 10.7815 64.2285 23.9176 64.2285C30.8519 64.2285 37.1018 61.2217 41.4586 56.4314L33.7183 44.3684C32.0963 48.2171 28.3149 50.9219 23.9176 50.9219C18.0478 50.9219 13.2729 46.1008 13.2729 40.1743C13.2729 34.2477 18.0478 29.4266 23.9176 29.4266C27.8333 29.4266 31.1535 31.6401 33.1101 34.7646C41.1519 47.5953 41.8996 48.5907 45.3794 54.0464C46.2766 55.4513 47.7263 57.2809 48.2002 57.7288C52.4606 61.7566 58.1834 64.2285 64.4689 64.2285C77.6049 64.2285 88.2927 53.4374 88.2927 40.1743C88.2927 26.9111 77.6049 16.12 64.4689 16.12Z" fill="#BABBC9"/>
<path d="M110.829 65.6743V18.7399H119.397V65.6743H110.829ZM127.731 65.6743V31.4027H135.48V38.1436L134.85 36.9467C135.648 34.8887 136.95 33.3347 138.756 32.2847C140.604 31.1927 142.746 30.6467 145.182 30.6467C147.702 30.6467 149.928 31.1927 151.86 32.2847C153.834 33.3767 155.367 34.9097 156.459 36.8837C157.551 38.8156 158.097 41.0626 158.097 43.6246V65.6743H149.844V45.5776C149.844 44.0656 149.55 42.7636 148.962 41.6716C148.374 40.5796 147.555 39.7396 146.505 39.1516C145.497 38.5216 144.3 38.2066 142.914 38.2066C141.57 38.2066 140.373 38.5216 139.323 39.1516C138.273 39.7396 137.454 40.5796 136.866 41.6716C136.278 42.7636 135.984 44.0656 135.984 45.5776V65.6743H127.731ZM169.045 65.6743V38.7736H162.997V31.4027H169.045V30.2687C169.045 27.6648 169.57 25.4598 170.62 23.6538C171.712 21.8058 173.224 20.3988 175.156 19.4329C177.088 18.4669 179.377 17.9839 182.023 17.9839C182.527 17.9839 183.072 18.0259 183.66 18.1099C184.29 18.1519 184.815 18.2149 185.235 18.2989V25.4178C184.815 25.3338 184.416 25.2918 184.038 25.2918C183.702 25.2498 183.387 25.2288 183.093 25.2288C181.246 25.2288 179.818 25.6488 178.81 26.4888C177.802 27.2868 177.298 28.5467 177.298 30.2687V31.4027H192.291V38.7736H177.298V65.6743H169.045ZM189.204 65.6743V31.4027H197.52V65.6743H189.204ZM204.389 65.6743V31.4027H212.138V38.1436L211.508 36.9467C212.306 34.8887 213.608 33.3347 215.414 32.2847C217.262 31.1927 219.404 30.6467 221.84 30.6467C224.359 30.6467 226.585 31.1927 228.517 32.2847C230.491 33.3767 232.024 34.9097 233.116 36.8837C234.208 38.8156 234.754 41.0626 234.754 43.6246V65.6743H226.501V45.5776C226.501 44.0656 226.207 42.7636 225.619 41.6716C225.031 40.5796 224.212 39.7396 223.163 39.1516C222.155 38.5216 220.958 38.2066 219.572 38.2066C218.228 38.2066 217.031 38.5216 215.981 39.1516C214.931 39.7396 214.112 40.5796 213.524 41.6716C212.936 42.7636 212.642 44.0656 212.642 45.5776V65.6743H204.389ZM241.733 65.6743V31.4027H249.986V65.6743H241.733ZM241.733 27.5598V18.7399H249.986V27.5598H241.733ZM254.519 65.6743L266.489 48.4755L254.456 31.4027H264.158L273.545 45.2626H269.198L278.585 31.4027H288.224L276.254 48.4755L288.161 65.6743H278.522L269.261 51.8775H273.482L264.221 65.6743H254.519Z" fill="white"/>
<path d="M307.293 15.7515L307.293 63.86" stroke="white" stroke-width="0.916353"/>
<path d="M335.246 35.9492C334.04 35.9492 332.91 35.7354 331.856 35.3078C330.802 34.8649 329.878 34.2463 329.084 33.4522C328.305 32.658 327.694 31.7264 327.251 30.6573C326.808 29.5729 326.587 28.3969 326.587 27.1293C326.587 25.8464 326.808 24.6704 327.251 23.6014C327.694 22.5323 328.305 21.6007 329.084 20.8065C329.878 20.0123 330.794 19.4014 331.833 18.9738C332.887 18.5462 334.025 18.3323 335.246 18.3323C336.468 18.3323 337.598 18.5538 338.637 18.9967C339.691 19.4243 340.607 20.0352 341.386 20.8294C342.18 21.6083 342.799 22.5323 343.242 23.6014C343.7 24.6704 343.929 25.8464 343.929 27.1293C343.929 28.3969 343.7 29.5729 343.242 30.6573C342.799 31.7264 342.18 32.658 341.386 33.4522C340.607 34.2463 339.691 34.8649 338.637 35.3078C337.598 35.7354 336.468 35.9492 335.246 35.9492ZM335.246 33.8645C336.193 33.8645 337.056 33.6965 337.835 33.3605C338.614 33.0093 339.286 32.5282 339.851 31.9173C340.431 31.2911 340.874 30.5733 341.18 29.7638C341.501 28.9391 341.661 28.0609 341.661 27.1293C341.661 26.1977 341.501 25.3272 341.18 24.5177C340.874 23.7083 340.431 22.9981 339.851 22.3872C339.286 21.761 338.614 21.2799 337.835 20.9439C337.056 20.5927 336.193 20.417 335.246 20.417C334.315 20.417 333.46 20.5927 332.681 20.9439C331.902 21.2799 331.222 21.761 330.642 22.3872C330.077 22.9981 329.634 23.7083 329.313 24.5177C328.992 25.3272 328.832 26.1977 328.832 27.1293C328.832 28.0609 328.992 28.9391 329.313 29.7638C329.634 30.5733 330.077 31.2911 330.642 31.9173C331.222 32.5282 331.902 33.0093 332.681 33.3605C333.46 33.6965 334.315 33.8645 335.246 33.8645ZM339.851 37.7361L334.032 28.8475H336.506L342.348 37.7361H339.851ZM353.389 35.9492C352.152 35.9492 351.052 35.6896 350.09 35.1703C349.143 34.6511 348.402 33.9409 347.868 33.0398C347.348 32.1234 347.089 31.0849 347.089 29.9242V18.6072H349.357V29.8784C349.357 30.6573 349.525 31.3522 349.861 31.9631C350.212 32.5587 350.685 33.0245 351.281 33.3605C351.892 33.6965 352.594 33.8645 353.389 33.8645C354.183 33.8645 354.878 33.6965 355.473 33.3605C356.084 33.0245 356.558 32.5587 356.894 31.9631C357.245 31.3522 357.421 30.6573 357.421 29.8784V18.6072H359.689V29.9242C359.689 31.0849 359.421 32.1234 358.887 33.0398C358.367 33.9409 357.634 34.6511 356.687 35.1703C355.741 35.6896 354.641 35.9492 353.389 35.9492ZM361.281 35.6743L367.398 18.6072H370.055L376.172 35.6743H373.767L372.369 31.6653H365.084L363.687 35.6743H361.281ZM365.794 29.6035H371.659L368.406 20.2338H369.047L365.794 29.6035ZM378.323 35.6743V18.6072H380.568V33.6125H388.059V35.6743H378.323ZM390.582 35.6743V18.6072H392.827V35.6743H390.582ZM399.601 35.6743V20.669H394.973V18.6072H406.428V20.669H401.869V35.6743H399.601ZM412.853 35.6743V27.8624L406.942 18.6072H409.485L414.433 26.3733H413.517L418.443 18.6072H420.985L415.121 27.8624V35.6743H412.853ZM325.441 64.6743L331.558 47.6072H334.216L340.332 64.6743H337.927L336.529 60.6653H329.244L327.847 64.6743H325.441ZM329.954 58.6035H335.819L332.566 49.2338H333.208L329.954 58.6035ZM348.124 64.9492C347.039 64.9492 346.047 64.7507 345.146 64.3536C344.244 63.9412 343.481 63.3838 342.855 62.6812C342.228 61.9787 341.778 61.1922 341.503 60.3216L343.45 59.5198C343.863 60.6195 344.474 61.4671 345.283 62.0627C346.108 62.6431 347.07 62.9332 348.17 62.9332C348.842 62.9332 349.429 62.8263 349.933 62.6125C350.437 62.3987 350.827 62.1009 351.102 61.7191C351.392 61.322 351.537 60.8638 351.537 60.3445C351.537 59.6267 351.331 59.0617 350.919 58.6493C350.521 58.2217 349.933 57.9009 349.155 57.6871L346.016 56.725C344.779 56.3431 343.832 55.7399 343.175 54.9152C342.519 54.0904 342.19 53.1435 342.19 52.0745C342.19 51.1428 342.412 50.3258 342.855 49.6232C343.313 48.9054 343.939 48.348 344.733 47.9509C345.543 47.5385 346.459 47.3323 347.482 47.3323C348.506 47.3323 349.429 47.5156 350.254 47.8821C351.094 48.2487 351.804 48.745 352.385 49.3712C352.965 49.9821 353.393 50.6847 353.668 51.4788L351.743 52.2806C351.377 51.3185 350.827 50.593 350.094 50.1043C349.361 49.6003 348.498 49.3483 347.505 49.3483C346.894 49.3483 346.352 49.4552 345.879 49.669C345.42 49.8676 345.062 50.1654 344.802 50.5625C344.558 50.9443 344.435 51.4025 344.435 51.937C344.435 52.5632 344.634 53.1206 345.031 53.6094C345.428 54.0981 346.031 54.4723 346.841 54.7319L349.704 55.5795C351.048 55.9919 352.064 56.5799 352.751 57.3435C353.439 58.1071 353.782 59.054 353.782 60.1842C353.782 61.1158 353.538 61.9405 353.049 62.6583C352.576 63.3761 351.911 63.9412 351.056 64.3536C350.216 64.7507 349.239 64.9492 348.124 64.9492ZM362.934 64.9492C361.85 64.9492 360.857 64.7507 359.956 64.3536C359.055 63.9412 358.291 63.3838 357.665 62.6812C357.039 61.9787 356.588 61.1922 356.313 60.3216L358.26 59.5198C358.673 60.6195 359.284 61.4671 360.093 62.0627C360.918 62.6431 361.88 62.9332 362.98 62.9332C363.652 62.9332 364.24 62.8263 364.744 62.6125C365.248 62.3987 365.637 62.1009 365.912 61.7191C366.202 61.322 366.347 60.8638 366.347 60.3445C366.347 59.6267 366.141 59.0617 365.729 58.6493C365.332 58.2217 364.744 57.9009 363.965 57.6871L360.826 56.725C359.589 56.3431 358.642 55.7399 357.986 54.9152C357.329 54.0904 357.001 53.1435 357.001 52.0745C357.001 51.1428 357.222 50.3258 357.665 49.6232C358.123 48.9054 358.749 48.348 359.543 47.9509C360.353 47.5385 361.269 47.3323 362.292 47.3323C363.316 47.3323 364.24 47.5156 365.064 47.8821C365.904 48.2487 366.615 48.745 367.195 49.3712C367.775 49.9821 368.203 50.6847 368.478 51.4788L366.553 52.2806C366.187 51.3185 365.637 50.593 364.904 50.1043C364.171 49.6003 363.308 49.3483 362.315 49.3483C361.704 49.3483 361.162 49.4552 360.689 49.669C360.231 49.8676 359.872 50.1654 359.612 50.5625C359.368 50.9443 359.246 51.4025 359.246 51.937C359.246 52.5632 359.444 53.1206 359.841 53.6094C360.238 54.0981 360.842 54.4723 361.651 54.7319L364.515 55.5795C365.859 55.9919 366.874 56.5799 367.561 57.3435C368.249 58.1071 368.592 59.054 368.592 60.1842C368.592 61.1158 368.348 61.9405 367.859 62.6583C367.386 63.3761 366.721 63.9412 365.866 64.3536C365.026 64.7507 364.049 64.9492 362.934 64.9492ZM378.065 64.9492C376.828 64.9492 375.728 64.6896 374.766 64.1703C373.819 63.6511 373.078 62.9409 372.544 62.0398C372.025 61.1234 371.765 60.0849 371.765 58.9242V47.6072H374.033V58.8784C374.033 59.6573 374.201 60.3522 374.537 60.9631C374.888 61.5587 375.362 62.0245 375.957 62.3605C376.568 62.6965 377.271 62.8645 378.065 62.8645C378.859 62.8645 379.554 62.6965 380.15 62.3605C380.76 62.0245 381.234 61.5587 381.57 60.9631C381.921 60.3522 382.097 59.6573 382.097 58.8784V47.6072H384.365V58.9242C384.365 60.0849 384.097 61.1234 383.563 62.0398C383.044 62.9409 382.311 63.6511 381.364 64.1703C380.417 64.6896 379.317 64.9492 378.065 64.9492ZM388.054 64.6743V47.6072H394.079C395.21 47.6072 396.202 47.8211 397.057 48.2487C397.913 48.6763 398.577 49.2872 399.051 50.0814C399.539 50.8756 399.784 51.8072 399.784 52.8763C399.784 54.0828 399.478 55.1061 398.867 55.9461C398.256 56.786 397.432 57.3893 396.393 57.7559L400.356 64.6743H397.745L393.575 57.2748L395.064 58.1453H390.299V64.6743H388.054ZM390.299 56.0835H394.148C394.82 56.0835 395.408 55.9537 395.912 55.6941C396.416 55.4344 396.805 55.0602 397.08 54.5715C397.371 54.0828 397.516 53.5177 397.516 52.8763C397.516 52.2196 397.371 51.6545 397.08 51.181C396.805 50.6923 396.416 50.3181 395.912 50.0585C395.408 49.7989 394.82 49.669 394.148 49.669H390.299V56.0835ZM401.26 64.6743L407.376 47.6072H410.034L416.151 64.6743H413.745L412.348 60.6653H405.063L403.665 64.6743H401.26ZM405.773 58.6035H411.638L408.384 49.2338H409.026L405.773 58.6035ZM418.301 64.6743V47.6072H420.18L429.985 61.3984L429.137 61.49V47.6072H431.405V64.6743H429.526L419.767 50.7916L420.546 50.6999V64.6743H418.301ZM443.072 64.9492C441.865 64.9492 440.751 64.7354 439.727 64.3078C438.719 63.8649 437.834 63.2463 437.07 62.4522C436.322 61.658 435.741 60.7264 435.329 59.6573C434.916 58.5882 434.71 57.4199 434.71 56.1522C434.71 54.8693 434.916 53.6934 435.329 52.6243C435.741 51.5552 436.322 50.6236 437.07 49.8294C437.818 49.0352 438.704 48.4243 439.727 47.9967C440.751 47.5538 441.865 47.3323 443.072 47.3323C444.248 47.3323 445.302 47.5385 446.233 47.9509C447.18 48.3632 447.974 48.8978 448.616 49.5545C449.273 50.2112 449.738 50.9137 450.013 51.6621L447.952 52.6014C447.554 51.6545 446.936 50.8908 446.096 50.3105C445.256 49.7149 444.248 49.417 443.072 49.417C441.881 49.417 440.819 49.6996 439.888 50.2647C438.971 50.8297 438.254 51.6163 437.734 52.6243C437.215 53.6323 436.955 54.8082 436.955 56.1522C436.955 57.4809 437.215 58.6493 437.734 59.6573C438.254 60.6653 438.971 61.4518 439.888 62.0169C440.819 62.582 441.881 62.8645 443.072 62.8645C444.248 62.8645 445.256 62.5743 446.096 61.994C446.936 61.3984 447.554 60.6271 447.952 59.6802L450.013 60.6195C449.738 61.3678 449.273 62.0703 448.616 62.7271C447.974 63.3838 447.18 63.9183 446.233 64.3307C445.302 64.743 444.248 64.9492 443.072 64.9492ZM453.067 64.6743V47.6072H464.178V49.669H455.312V55.0755H463.72V57.1373H455.312V62.6125H464.178V64.6743H453.067Z" fill="white"/>
</svg>

<svg width="476" height="80" fill="none" xmlns="http://www.w3.org/2000/svg"><path d="M.094.674h475.094v79H.094z"/><path d="M64.469 16.12c-6.899 0-13.121 2.979-17.475 7.728l7.793 11.874c1.678-3.71 5.386-6.295 9.682-6.295 5.87 0 10.645 4.82 10.645 10.747s-4.775 10.748-10.645 10.748c-3.97 0-7.251-2.316-9.264-5.463C44.954 29.427 46.5 31.68 43.182 26.45c-.806-1.271-1.774-2.59-2.017-2.848-4.342-4.606-10.468-7.482-17.247-7.482C10.782 16.12.094 26.911.094 40.174c0 13.263 10.688 24.054 23.824 24.054 6.934 0 13.184-3.006 17.54-7.797l-7.74-12.063c-1.622 3.85-5.403 6.554-9.8 6.554-5.87 0-10.645-4.821-10.645-10.748 0-5.926 4.775-10.747 10.645-10.747 3.915 0 7.236 2.213 9.192 5.338 8.042 12.83 8.79 13.826 12.27 19.281.897 1.405 2.346 3.235 2.82 3.683 4.26 4.028 9.983 6.5 16.269 6.5 13.136 0 23.824-10.792 23.824-24.055S77.605 16.12 64.469 16.12Z" fill="#BABBC9"/><path d="M110.829 65.674V18.74h8.568v46.934h-8.568Zm16.902 0V31.403h7.749v6.74l-.63-1.196c.798-2.058 2.1-3.612 3.906-4.662 1.848-1.092 3.99-1.638 6.426-1.638 2.52 0 4.746.546 6.678 1.638a11.538 11.538 0 0 1 4.599 4.599c1.092 1.932 1.638 4.179 1.638 6.74v22.05h-8.253V45.578c0-1.512-.294-2.814-.882-3.906-.588-1.092-1.407-1.932-2.457-2.52-1.008-.63-2.205-.945-3.591-.945-1.344 0-2.541.315-3.591.945-1.05.588-1.869 1.428-2.457 2.52-.588 1.092-.882 2.394-.882 3.906v20.096h-8.253Zm41.314 0v-26.9h-6.048v-7.371h6.048v-1.134c0-2.604.525-4.81 1.575-6.615a10.735 10.735 0 0 1 4.536-4.221c1.932-.966 4.221-1.45 6.867-1.45.504 0 1.049.043 1.637.127.63.042 1.155.105 1.575.189v7.119a6.11 6.11 0 0 0-1.197-.126 7.642 7.642 0 0 0-.945-.063c-1.847 0-3.275.42-4.283 1.26-1.008.798-1.512 2.058-1.512 3.78v1.134h14.993v7.37h-14.993v26.901h-8.253Zm20.159 0V31.403h8.316v34.271h-8.316Zm15.185 0V31.403h7.749v6.74l-.63-1.196c.798-2.058 2.1-3.612 3.906-4.662 1.848-1.092 3.99-1.638 6.426-1.638 2.519 0 4.745.546 6.677 1.638a11.538 11.538 0 0 1 4.599 4.599c1.092 1.932 1.638 4.179 1.638 6.74v22.05h-8.253V45.578c0-1.512-.294-2.814-.882-3.906-.588-1.092-1.407-1.932-2.456-2.52-1.008-.63-2.205-.945-3.591-.945-1.344 0-2.541.315-3.591.945-1.05.588-1.869 1.428-2.457 2.52-.588 1.092-.882 2.394-.882 3.906v20.096h-8.253Zm37.344 0V31.403h8.253v34.271h-8.253Zm0-38.114v-8.82h8.253v8.82h-8.253Zm12.786 38.114 11.97-17.199-12.033-17.072h9.702l9.387 13.86h-4.347l9.387-13.86h9.639l-11.97 17.072 11.907 17.2h-9.639l-9.261-13.797h4.221l-9.261 13.796h-9.702Z" fill="#fff"/><path d="M307.293 15.752V63.86" stroke="#fff" stroke-width=".916"/><path d="M335.246 35.95a8.93 8.93 0 0 1-3.39-.642 8.58 8.58 0 0 1-2.772-1.856 8.705 8.705 0 0 1-1.833-2.795c-.443-1.084-.664-2.26-.664-3.528 0-1.283.221-2.459.664-3.528.443-1.069 1.054-2 1.833-2.794a8.335 8.335 0 0 1 2.749-1.833c1.054-.428 2.192-.642 3.413-.642 1.222 0 2.352.222 3.391.665a8.037 8.037 0 0 1 2.749 1.832 8.27 8.27 0 0 1 1.856 2.772c.458 1.07.687 2.245.687 3.528 0 1.268-.229 2.444-.687 3.528a8.524 8.524 0 0 1-1.856 2.795 8.324 8.324 0 0 1-2.749 1.856c-1.039.427-2.169.641-3.391.641Zm0-2.086c.947 0 1.81-.167 2.589-.503a6.166 6.166 0 0 0 2.016-1.444 6.541 6.541 0 0 0 1.329-2.153 7.198 7.198 0 0 0 .481-2.635 7.02 7.02 0 0 0-.481-2.611 6.29 6.29 0 0 0-1.329-2.13 5.751 5.751 0 0 0-2.016-1.444c-.779-.351-1.642-.527-2.589-.527-.931 0-1.786.176-2.565.527a5.978 5.978 0 0 0-2.039 1.443 6.792 6.792 0 0 0-1.329 2.13 7.02 7.02 0 0 0-.481 2.612c0 .932.16 1.81.481 2.635a7.08 7.08 0 0 0 1.329 2.153c.58.611 1.26 1.092 2.039 1.444.779.336 1.634.504 2.565.504Zm4.605 3.872-5.819-8.888h2.474l5.842 8.888h-2.497Zm13.538-1.787c-1.237 0-2.337-.26-3.299-.779a5.73 5.73 0 0 1-2.222-2.13c-.52-.917-.779-1.955-.779-3.116V18.607h2.268v11.271c0 .78.168 1.474.504 2.085a3.774 3.774 0 0 0 1.42 1.398c.611.336 1.313.504 2.108.504.794 0 1.489-.169 2.084-.505a3.574 3.574 0 0 0 1.421-1.397c.351-.61.527-1.306.527-2.085v-11.27h2.268v11.316c0 1.16-.268 2.2-.802 3.116a5.578 5.578 0 0 1-2.2 2.13c-.946.52-2.046.78-3.298.78Zm7.892-.275 6.117-17.067h2.657l6.117 17.067h-2.405l-1.398-4.009h-7.285l-1.397 4.01h-2.406Zm4.513-6.07h5.865l-3.253-9.37h.641l-3.253 9.37Zm12.529 6.07V18.607h2.245v15.005h7.491v2.062h-9.736Zm12.259 0V18.607h2.245v17.067h-2.245Zm9.019 0V20.67h-4.628v-2.062h11.455v2.062h-4.559v15.005h-2.268Zm13.252 0v-7.812l-5.911-9.255h2.543l4.948 7.766h-.916l4.926-7.766h2.542l-5.864 9.255v7.812h-2.268Zm-87.412 29 6.117-17.067h2.658l6.116 17.067h-2.405l-1.398-4.009h-7.285l-1.397 4.01h-2.406Zm4.513-6.07h5.865l-3.253-9.37h.642l-3.254 9.37Zm18.17 6.345c-1.085 0-2.077-.198-2.978-.595a6.826 6.826 0 0 1-2.291-1.673 6.41 6.41 0 0 1-1.352-2.36l1.947-.801c.413 1.1 1.024 1.947 1.833 2.543.825.58 1.787.87 2.887.87.672 0 1.259-.107 1.763-.32.504-.214.894-.512 1.169-.894a2.27 2.27 0 0 0 .435-1.375c0-.717-.206-1.282-.618-1.695-.398-.427-.986-.748-1.764-.962l-3.139-.962c-1.237-.382-2.184-.985-2.841-1.81a4.437 4.437 0 0 1-.985-2.84c0-.932.222-1.75.665-2.452a4.64 4.64 0 0 1 1.878-1.672c.81-.413 1.726-.619 2.749-.619 1.024 0 1.947.184 2.772.55.84.367 1.55.863 2.131 1.49a5.77 5.77 0 0 1 1.283 2.107l-1.925.802c-.366-.962-.916-1.688-1.649-2.177-.733-.504-1.596-.756-2.589-.756-.611 0-1.153.107-1.626.321a2.385 2.385 0 0 0-1.077.894c-.244.381-.367.84-.367 1.374 0 .626.199 1.184.596 1.672.397.49 1 .863 1.81 1.123l2.863.848c1.344.412 2.36 1 3.047 1.764.688.763 1.031 1.71 1.031 2.84 0 .932-.244 1.757-.733 2.474-.473.718-1.138 1.283-1.993 1.696-.84.397-1.817.595-2.932.595Zm14.81 0c-1.084 0-2.077-.198-2.978-.595a6.836 6.836 0 0 1-2.291-1.673 6.424 6.424 0 0 1-1.352-2.36l1.947-.801c.413 1.1 1.024 1.947 1.833 2.543.825.58 1.787.87 2.887.87.672 0 1.26-.107 1.764-.32.504-.214.893-.512 1.168-.894a2.27 2.27 0 0 0 .435-1.375c0-.717-.206-1.282-.618-1.695-.397-.427-.985-.748-1.764-.962l-3.139-.962c-1.237-.382-2.184-.985-2.84-1.81a4.431 4.431 0 0 1-.985-2.84c0-.932.221-1.75.664-2.452a4.64 4.64 0 0 1 1.878-1.672c.81-.413 1.726-.619 2.749-.619 1.024 0 1.948.184 2.772.55.84.367 1.551.863 2.131 1.49a5.77 5.77 0 0 1 1.283 2.107l-1.925.802c-.366-.962-.916-1.688-1.649-2.177-.733-.504-1.596-.756-2.589-.756-.611 0-1.153.107-1.626.321a2.39 2.39 0 0 0-1.077.894c-.244.381-.366.84-.366 1.374 0 .626.198 1.184.595 1.672.397.49 1.001.863 1.81 1.123l2.864.848c1.344.412 2.359 1 3.046 1.764.688.763 1.031 1.71 1.031 2.84 0 .932-.244 1.757-.733 2.474-.473.718-1.138 1.283-1.993 1.696-.84.397-1.817.595-2.932.595Zm15.131 0c-1.237 0-2.337-.26-3.299-.779a5.73 5.73 0 0 1-2.222-2.13c-.519-.917-.779-1.955-.779-3.116V47.607h2.268v11.271c0 .78.168 1.474.504 2.085a3.781 3.781 0 0 0 1.42 1.398c.611.336 1.314.504 2.108.504s1.489-.169 2.085-.505a3.578 3.578 0 0 0 1.42-1.397c.351-.61.527-1.306.527-2.085v-11.27h2.268v11.316c0 1.16-.268 2.2-.802 3.116a5.569 5.569 0 0 1-2.199 2.13c-.947.52-2.047.78-3.299.78Zm9.989-.275V47.607h6.025c1.131 0 2.123.214 2.978.642a4.726 4.726 0 0 1 1.994 1.832c.488.795.733 1.726.733 2.795 0 1.207-.306 2.23-.917 3.07-.611.84-1.435 1.443-2.474 1.81l3.963 6.918h-2.611l-4.17-7.4 1.489.871h-4.765v6.53h-2.245Zm2.245-8.59h3.849c.672 0 1.26-.13 1.764-.39s.893-.634 1.168-1.123c.291-.488.436-1.053.436-1.695 0-.656-.145-1.221-.436-1.695a2.762 2.762 0 0 0-1.168-1.122c-.504-.26-1.092-.39-1.764-.39h-3.849v6.415Zm10.961 8.59 6.116-17.067h2.658l6.117 17.067h-2.406l-1.397-4.009h-7.285l-1.398 4.01h-2.405Zm4.513-6.07h5.865l-3.254-9.37h.642l-3.253 9.37Zm12.528 6.07V47.607h1.879l9.805 13.791-.848.092V47.607h2.268v17.067h-1.879l-9.759-13.882.779-.092v13.974h-2.245Zm24.771.275c-1.207 0-2.321-.214-3.345-.641a8.267 8.267 0 0 1-2.657-1.856 8.474 8.474 0 0 1-1.741-2.795c-.413-1.069-.619-2.237-.619-3.505 0-1.283.206-2.459.619-3.528.412-1.069.993-2 1.741-2.795a7.67 7.67 0 0 1 2.657-1.832c1.024-.443 2.138-.665 3.345-.665 1.176 0 2.23.206 3.161.619.947.412 1.741.947 2.383 1.603.657.657 1.122 1.36 1.397 2.108l-2.061.94a5.154 5.154 0 0 0-1.856-2.291c-.84-.596-1.848-.894-3.024-.894-1.191 0-2.253.283-3.184.848-.917.565-1.634 1.351-2.154 2.36-.519 1.007-.779 2.183-.779 3.527 0 1.329.26 2.497.779 3.505.52 1.008 1.237 1.795 2.154 2.36.931.565 1.993.847 3.184.847 1.176 0 2.184-.29 3.024-.87a5.3 5.3 0 0 0 1.856-2.314l2.061.94c-.275.748-.74 1.45-1.397 2.107-.642.657-1.436 1.191-2.383 1.604-.931.412-1.985.618-3.161.618Zm9.995-.275V47.607h11.111v2.062h-8.866v5.407h8.408v2.061h-8.408v5.475h8.866v2.062h-11.111Z" fill="#fff"/></svg>
